X:1906
T:Trollpolska efter Hans Börtas
R:Polska
Z:Eva Zwahlen 2010-09-22
N:[[!Andrastämma]] för Trumpet stämd i Bess
Q:1/4=80
M:3/4
L:1/16
K:Em
| |: E4 F4 G4 | B8 A4 | B8 G4 | G8 B4 | c8 A4 | B8 G4 | F4 F4 F4 |1 E4 E4 z4 :|2 E4 E8 |: (G4 A4) B4 | A8 F4 | B8 G4 | B8 A4 | G8 F4
| G8 E4 | F4 F4 F4 | E4 E8 :|  
(:musicend:)


(:music:)
